X: 1

T: Barrel Rafferty's

T: Master McDermott, McDermott's Reel, Josie McDermott's

R: reel

D: Kevin Griffin: Down in Doolin

M: 4/4

L: 1/8

K: D

A | D2 ED FAAB | d2 fe dB B2 | AF ~F2 DF A2 | BFAF EAFE |

D2 ED FAAB | d2 fe dB B2 | AF ~F2 D2 AF | EGFE D3 :|

A | df~f2 dfaf | g2bf affe | dBBA Bcde | fdgf e2 de |

faaf g2bf | affe dB B2 | AF~F2 D2 AF | EGFE D3 :|

                       


BARREN ROCKS OF ADEN. AKA and see “Dan O’Leary’s [1],” “The Sailor’s.” Scottish; “Pipe Quickstep,” March (2/4 time). D Major (most versions): D Mixolydian (Bayard). Standard tuning. AB (Bayard): AAB (Hunter, Martin): AABB (Miller & Perron, Sannella, Skinner, Taylor): AABBCCDD (Sweet). Bayard (1981) says the tune is well known among bagpipers and fifers in modern times, but that the piece is not particularly old; he traces it to a possible source from a Highland regiment, which version was published in McDonald's Gesto Collection in 1895.  Skinner (1904) and Hunter (1988) attribute the tune to one A. MacKellar of the 78th Seaforth Highlanders Regiment of the British army. David Murray, writing in his excellent volume Music of the Scottish Regiments (Edinburgh, 1994), dates the tune to the mid 19th century when the 78th was stationed in Bombay. A detachment was provided from the regiment to garrison Aden, and it was there that Piper James Mauchline composed the march, which has become one of the most familiar of Scottish martial airs. “The first two measures [Ed.—i.e. first two parts] went well on the flute,” writes Murray, “so the march was taken up by many corps of drums, eventually becoming a standby, played frequently by the drums of English regiments which had no idea of its provenance and who would accuse the pipers of stealing their tune. ‘The Barren Rocks’ has been played and whistled wherever Scots soldiers have been stationed. A former generation used to sing to the air of the first measure [ed.—i.e. first part]:

***

See the laddie ower there

Si; the tartan kilt and the twa legs bare,

And a’ the ladies they declare

‘She’s a fine braw chiel is her nainsel’

***

This is an example of the kind of fun which used to be poked at Gaelic speaking soldiers, always in the minority. The las line mocks the difficulty which native Gaelic speakers had with the English language. ‘She’s a fine braw chiel’ means a handsome sturdy lad; ‘her nainsel’, her own self, i.e. the speaker” (pg. 120).

***

The Halifax Citadel Regimental Association records that Piper Mauchline’s tune was un-named, and the Pipe Major Alexander Mackellar re-arranged it and gave it its’ name. Pipers sometimes play the air in four parts, adding an additional two to the sections given by Hunter, Martin, Miller & Perron and others. See also note for “The 78th’s Farewell to Begaum” for another famous march to come out of the 78’s station overseas at the time. Sources for notated versions: fifer Hiram Horner (Western Pa. 1960) [Bayard]; set dance music recorded at Na Píobairí Uilleann, late 1980’s [Taylor]; Mattie Toohy’s Irish Minstrels [Miller & Perron]. Bayard (Dance to the Fiddle), 1981; No. 374, pg. 363. Bulmer & Sharpley (Music from Ireland), vol. 4; 76. Hunter (Fiddle Music of Scotland), 1988; No. 343. Martin (Ceol na Fidhle), vol. 2, 1988; pg. 11. Miller & Perron (Irish Traditional Fiddle Music), 1977; vol. 2, No. 64. Miller & Perron (Irish Traditional Fiddle Music), 2nd Edition, 2006; pg. 127. Morison (Highland Airs and Quicksteps, vol. 2), c. 1882; No. 37, pg. 22. Moylan (Johnny O’Leary), 1994; 44. Sannella, Balance and Swing (CDSS). Skinner (The Scottish Violinist), pg. 31. Skinner (Harp and Claymore), 1904; pg. 54 (includes variation sets). Sweet (Fifer’s Delight), 1964; pg. 56. Taylor (Music for the Sets: Blue Book), 1995; pg. 21. Old Hat Music OH!02, "The Old Hat Dance Band" (1992. Learned from melodeon player Cecil Pearl of Ipswich, Suffolk).       

See also listing at:

Jane Keefer’s Folk Music Index: An Index to Recorded Sources

